packages/ui-icons/src/Basic/24/TV_24.svg

<svg xmlns="http://www.w3.org/2000/svg" viewBox="0 0 32 32"><path d="M11 11.91v8.17l1.32.92L21 17.22v-2.58L12.25 11Zm2 1.58 6 2.44-6 2.54Z"/><path d="M24.74 7h-5.15l1.3-2.61-1.78-.89L17.36 7h-2.72l-1.75-3.5-1.79.89L12.41 7H7.26A3.27 3.27 0 0 0 4 10.26v11.48A3.27 3.27 0 0 0 7.26 25h17.49A3.25 3.25 0 0 0 28 21.75V10.26A3.27 3.27 0 0 0 24.74 7ZM26 21.75A1.25 1.25 0 0 1 24.75 23H7.26A1.27 1.27 0 0 1 6 21.74V10.26A1.27 1.27 0 0 1 7.26 9h17.48A1.27 1.27 0 0 1 26 10.26Z"/></svg>

<svg id="Ready" xmlns="http://www.w3.org/2000/svg" viewBox="0 0 32 32"><title>Megaicons_work_24_1.8_cp</title><path d="M11,11.91v8.17l1.32.92L21,17.22V14.64L12.25,11Zm2,1.58,6,2.44-6,2.54Z"/><path d="M24.74,7H19.59l1.3-2.61L19.11,3.5,17.36,7H14.64L12.89,3.5l-1.79.89L12.41,7H7.26A3.27,3.27,0,0,0,4,10.26V21.74A3.27,3.27,0,0,0,7.26,25H24.75A3.25,3.25,0,0,0,28,21.75V10.26A3.27,3.27,0,0,0,24.74,7ZM26,21.75A1.25,1.25,0,0,1,24.75,23H7.26A1.27,1.27,0,0,1,6,21.74V10.26A1.27,1.27,0,0,1,7.26,9H24.74A1.27,1.27,0,0,1,26,10.26Z"/></svg>
